X: 20682
T: They Mend their Pace
%R: jig, march
B: James Oswald "The Caledonian Pocket Companion" v.2 p.68 #2
Z: 2019 John Chambers <jc:trillian.mit.edu>
M: 6/8
L: 1/8
K: Dmix
|:\
(F2D) (F2D) | (E2D) (E2D) | (TF2D) (TF2D) | TE2D D2d ::\
TB2A  TF2d  | TB2A   E2d  |  TB2A   TF2D  | TE2D D2d :|


